X: 13681
T: Foot Of The Mountain, The
R: jig
M: 6/8
K: Gmajor
(G3/4A/4)|B3 (TBAG)|Add dcA|B3 (TBAG)|FAA AFD|
B3 (TBAG)|Add dcA|DGG cAF|AGG G2:|
|:D|DGG FDD|DGG FDD|DGG AGF|cAG AFD|
DGG FDD|DGG FDD|DGG cAF|AGG G2:|

